!!!OTL: Pan ge
!!!ARE: Asia, China, Shanxi Shiquan
!! I, 85
!!!SCT: C1411
!!!YEM: Copyright 1995, estate of Helmut Schaffrath.
**kern
*ICvox
*Ivox
!! Mixed meters:  2/4; 3/4
*M2/4
*k[f#]
*G:
{8e
16e
16g
4b
=1
16a
16b
16a
16g
4e
=2
*M3/4
8b
16a
16g
4a
4b}
=3
*M2/4
{8b
8g
8a
8b
=4
8g
8e
4g
=5
8g
16g
16b
8a
8g
=6
2e}
=7
{8dd
8a
4b
=8
16a
16b
16a
16g
4e
=9
*M3/4
8b
16a
16g
4a
4b}
=10
*M2/4
{8g
8b
8a
8g
=11
8g
8e
4g
=12
8g
16g
16b
8a
8g
=13
2e}
==
!!!AGN: Xiaodiao. Chang huahui
!!!ONB: ESAC (Essen Associative Code) Database: HUANG
!!!AMT: irregular
!!!AIN: vox
!!!EED: Helmut Schaffrath
!!!EEV: 1.0
*-
